docs/src/static/github_icon.svg

<svg height="43" viewBox="0 0 157 43" width="157" xmlns="http://www.w3.org/2000/svg"><g fill="#fff" fill-rule="evenodd"><path d="m30.4360375 18.1834115h-13.1074906c-.3382215 0-.6123498.2741283-.6123498.6127829v6.4084529c0 .3377885.2741283.613216.6123498.613216h5.1131642v7.9618467s-1.1480476.3914881-4.3223928.3914881c-3.744688 0-8.97607816-1.3680431-8.97607816-12.8719048 0-11.50602695 5.44748816-13.02001205 10.56151856-13.02001205 4.4271938 0 6.3339663.77907872 7.5478393 1.15497662.3815277.11649371.7340403-.26286869.7340403-.60152326l1.4620176-6.19148886c0-.15850072-.0536997-.34948111-.2338535-.47853362-.4928247-.35164642-3.4995748-2.03409269-11.0954841-2.03409269-8.75001974 0-17.72609791 3.72260182-17.72609791 21.61932626 0 17.8967243 10.27656361 20.5635208 18.93650651 20.5635208 7.1702092 0 11.5198849-3.0639144 11.5198849-3.0639144.1792877-.0991712.1987755-.3494811.1987755-.4642426v-19.9871151c0-.3386546-.2741283-.6127829-.6123498-.6127829"/><path d="m97.9867963 2.27270991c0-.34081988-.2702308-.61581431-.6088853-.61581431h-7.3802443c-.3369224 0-.6110507.27499443-.6110507.61581431 0 .00173224.0021653 14.26290029.0021653 14.26290029h-11.5042947v-14.26290029c0-.34081988-.2710968-.61581431-.6088853-.61581431h-7.3798112c-.3356232 0-.6097515.27499443-.6097515.61581431v38.61961209c0 .3408198.2741283.6179796.6097515.6179796h7.3798112c.3377885 0 .6088853-.2771598.6088853-.6179796v-16.5187208h11.5042947s-.0203539 16.5174216-.0203539 16.5187208c0 .3408198.2736953.6179796.6114837.6179796h7.3975668c.3382215 0 .6084523-.2771598.6093184-.6179796z"/><path d="m44.3628816 7.34083568c0-2.65770212-2.1302324-4.80525708-4.7589194-4.80525708-2.6260886 0-4.7584864 2.14755496-4.7584864 4.80525708 0 2.65467067 2.1323978 4.80785542 4.7584864 4.80785542 2.628687 0 4.7589194-2.15318475 4.7589194-4.80785542"/><path d="m43.835412 32.7459908c0-.98998 0-17.8270014 0-17.8270014 0-.3386546-.2732622-.6153813-.6106176-.6153813h-7.357292c-.3373554 0-.6391997.348182-.6391997.6868365v25.5402705c0 .7504966.4677071.9739567 1.0726949.9739567h6.6284485c.7275443 0 .9059659-.3572763.9059659-.9860824 0-1.3689093 0-6.7319504 0-7.7725986"/><path d="m126.034929 14.3620715h-7.323513c-.335623 0-.609318.2767267-.609318.6171135v18.9365065s-1.860868 1.3611142-4.501681 1.3611142c-2.640379 0-3.341074-1.1982828-3.341074-3.7836636 0-2.5888452 0-16.5139571 0-16.5139571 0-.3403868-.272829-.6171135-.609318-.6171135h-7.433078c-.33519 0-.610185.2767267-.610185.6171135v17.7642074c0 7.6803564 4.280386 9.5594128 10.168732 9.5594128 4.83124 0 8.726201-2.6689617 8.726201-2.6689617s.185351 1.4065857.269365 1.5733146c.083581.1662958.302277.3343239.538729.3343239l4.728605-.02122c.33519 0 .610184-.2771597.610184-.6162474l-.002598-25.9248296c0-.3403868-.273262-.6171135-.611051-.6171135"/><path d="m143.163402 35.2534203c-2.540343-.077085-4.263497-1.2298963-4.263497-1.2298963v-12.2301068s1.699769-1.0419474 3.785396-1.2281641c2.637348-.2360189 5.178557.5603823 5.178557 6.8519085 0 6.6340783-1.146749 7.9436581-4.700456 7.8362587zm2.888524-21.7592052c-4.159562 0-6.988756 1.8561041-6.988756 1.8561041v-13.07760929c0-.34081988-.272829-.61581431-.608886-.61581431h-7.401464c-.336489 0-.609751.27499443-.609751.61581431v38.61961209c0 .3408198.273262.6179796.610617.6179796h5.13525c.231256 0 .406213-.1190921.535698-.327828.127754-.2074368.311805-1.7807514.311805-1.7807514s3.026238 2.8677372 8.755217 2.8677372c6.72632 0 10.583604-3.4116632 10.583604-15.3152412 0-11.9044441-6.160741-13.4600031-10.323334-13.4600031z"/><path d="m65.0467937 14.3001436h-5.5362659s-.0082282-7.31225354-.0082282-7.31355272c0-.27715975-.1429105-.41530656-.4629434-.41530656h-7.5439418c-.2936161 0-.4508176.12905251-.4508176.41097594v7.55779974s-3.7806322.912895-4.0365719.9865155c-.2542074.0736206-.4417233.3083402-.4417233.5885314v4.7493921c0 .341686.2728291.6171135.6101845.6171135h3.8681107v11.4259104c0 8.486718 5.9528716 9.3203626 9.9695226 9.3203626 1.8357503 0 4.0313751-.5893975 4.3938481-.7232137.2191294-.0805496.3464497-.3079072.3464497-.5538865l.0064959-5.2244611c0-.3408199-.2879863-.6166805-.6119167-.6166805-.3230644 0-1.1480477.1312178-1.9977155.1312178-2.71963 0-3.6407531-1.2645413-3.6407531-2.901083 0-1.6352425-.0004331-10.858166-.0004331-10.858166h5.536699c.3373554 0 .6106176-.2754275.6106176-.6171135v-5.9489741c0-.3408199-.2732622-.6153813-.6106176-.6153813"/></g></svg>

<?xml version="1.0" encoding="UTF-8"?>
<svg width="157px" height="43px" viewBox="0 0 157 43" version="1.1" xmlns="http://www.w3.org/2000/svg" xmlns:xlink="http://www.w3.org/1999/xlink">
    <!-- Generator: Sketch 48.2 (47327) - http://www.bohemiancoding.com/sketch -->
    <title>GitHub_Logo Copy</title>
    <desc>Created with Sketch.</desc>
    <defs></defs>
    <g id="Web:-Home" stroke="none" stroke-width="1" fill="none" fill-rule="evenodd" transform="translate(-952.000000, -1009.000000)">
        <g id="GitHub_Logo-Copy" transform="translate(952.000000, 1009.000000)" fill="#FFFFFF">
            <g id="Group-12">
                <path d="M30.4360375,18.1834115 L17.3285469,18.1834115 C16.9903254,18.1834115 16.7161971,18.4575398 16.7161971,18.7961944 L16.7161971,25.2046473 C16.7161971,25.5424358 16.9903254,25.8178633 17.3285469,25.8178633 L22.4417111,25.8178633 L22.4417111,33.77971 C22.4417111,33.77971 21.2936635,34.1711981 18.1193183,34.1711981 C14.3746303,34.1711981 9.14324014,32.803155 9.14324014,21.2992933 C9.14324014,9.79326635 14.5907283,8.27928125 19.7047587,8.27928125 C24.1319525,8.27928125 26.038725,9.05835997 27.252598,9.43425787 C27.6341257,9.55075158 27.9866383,9.17138918 27.9866383,8.83273461 L29.4486559,2.64124575 C29.4486559,2.48274503 29.3949562,2.29176464 29.2148024,2.16271213 C28.7219777,1.81106571 25.7152276,0.128619444 18.1193183,0.128619444 C9.36929856,0.128619444 0.393220388,3.85122126 0.393220388,21.7479457 C0.393220388,39.64467 10.669784,42.3114665 19.3297269,42.3114665 C26.4999361,42.3114665 30.8496118,39.2475521 30.8496118,39.2475521 C31.0288995,39.1483809 31.0483873,38.898071 31.0483873,38.7833095 L31.0483873,18.7961944 C31.0483873,18.4575398 30.774259,18.1834115 30.4360375,18.1834115" id="Fill-11"></path>
            </g>
            <path d="M97.9867963,2.27270991 C97.9867963,1.93189003 97.7165655,1.6568956 97.377911,1.6568956 L89.9976667,1.6568956 C89.6607443,1.6568956 89.386616,1.93189003 89.386616,2.27270991 C89.386616,2.27444215 89.3887813,16.5356102 89.3887813,16.5356102 L77.8844866,16.5356102 L77.8844866,2.27270991 C77.8844866,1.93189003 77.6133898,1.6568956 77.2756013,1.6568956 L69.8957901,1.6568956 C69.5601669,1.6568956 69.2860386,1.93189003 69.2860386,2.27270991 L69.2860386,40.892322 C69.2860386,41.2331418 69.5601669,41.5103016 69.8957901,41.5103016 L77.2756013,41.5103016 C77.6133898,41.5103016 77.8844866,41.2331418 77.8844866,40.892322 L77.8844866,24.3736012 L89.3887813,24.3736012 C89.3887813,24.3736012 89.3684274,40.8910228 89.3684274,40.892322 C89.3684274,41.2331418 89.6421227,41.5103016 89.9799111,41.5103016 L97.3774779,41.5103016 C97.7156994,41.5103016 97.9859302,41.2331418 97.9867963,40.892322 L97.9867963,2.27270991" id="Fill-13"></path>
            <path d="M44.3628816,7.34083568 C44.3628816,4.68313356 42.2326492,2.5355786 39.6039622,2.5355786 C36.9778736,2.5355786 34.8454758,4.68313356 34.8454758,7.34083568 C34.8454758,9.99550635 36.9778736,12.1486911 39.6039622,12.1486911 C42.2326492,12.1486911 44.3628816,9.99550635 44.3628816,7.34083568" id="Fill-14"></path>
            <path d="M43.835412,32.7459908 C43.835412,31.7560108 43.835412,14.9189894 43.835412,14.9189894 C43.835412,14.5803348 43.5621498,14.3036081 43.2247944,14.3036081 L35.8675024,14.3036081 C35.530147,14.3036081 35.2283027,14.6517901 35.2283027,14.9904446 C35.2283027,14.9904446 35.2283027,36.4417427 35.2283027,40.5307151 C35.2283027,41.2812117 35.6960098,41.5046718 36.3009976,41.5046718 C36.3009976,41.5046718 39.4415639,41.5046718 42.9294461,41.5046718 C43.6569904,41.5046718 43.835412,41.1473955 43.835412,40.5185894 C43.835412,39.1496801 43.835412,33.786639 43.835412,32.7459908" id="Fill-15"></path>
            <path d="M126.034929,14.3620715 L118.711416,14.3620715 C118.375793,14.3620715 118.102098,14.6387982 118.102098,14.979185 L118.102098,33.9156915 C118.102098,33.9156915 116.24123,35.2768057 113.600417,35.2768057 C110.960038,35.2768057 110.259343,34.0785229 110.259343,31.4931421 C110.259343,28.9042969 110.259343,14.979185 110.259343,14.979185 C110.259343,14.6387982 109.986514,14.3620715 109.650025,14.3620715 L102.216947,14.3620715 C101.881757,14.3620715 101.606762,14.6387982 101.606762,14.979185 C101.606762,14.979185 101.606762,25.0634691 101.606762,32.7433924 C101.606762,40.4237488 105.887148,42.3028052 111.775494,42.3028052 C116.606734,42.3028052 120.501695,39.6338435 120.501695,39.6338435 C120.501695,39.6338435 120.687046,41.0404292 120.77106,41.2071581 C120.854641,41.3734539 121.073337,41.541482 121.309789,41.541482 L126.038394,41.520262 C126.373584,41.520262 126.648578,41.2431023 126.648578,40.9040146 L126.64598,14.979185 C126.64598,14.6387982 126.372718,14.3620715 126.034929,14.3620715" id="Fill-16"></path>
            <path d="M143.163402,35.2534203 C140.623059,35.1763353 138.899905,34.023524 138.899905,34.023524 L138.899905,21.7934172 C138.899905,21.7934172 140.599674,20.7514698 142.685301,20.5652531 C145.322649,20.3292342 147.863858,21.1256354 147.863858,27.4171616 C147.863858,34.0512399 146.717109,35.3608197 143.163402,35.2534203 Z M146.051926,13.4942151 C141.892364,13.4942151 139.06317,15.3503192 139.06317,15.3503192 L139.06317,2.27270991 C139.06317,1.93189003 138.790341,1.6568956 138.454284,1.6568956 L131.05282,1.6568956 C130.716331,1.6568956 130.443069,1.93189003 130.443069,2.27270991 L130.443069,40.892322 C130.443069,41.2331418 130.716331,41.5103016 131.053686,41.5103016 C131.054552,41.5103016 136.187204,41.5103016 136.188936,41.5103016 C136.420192,41.5103016 136.595149,41.3912095 136.724634,41.1824736 C136.852388,40.9750368 137.036439,39.4017222 137.036439,39.4017222 C137.036439,39.4017222 140.062677,42.2694594 145.791656,42.2694594 C152.517976,42.2694594 156.37526,38.8577962 156.37526,26.9542182 C156.37526,15.0497741 150.214519,13.4942151 146.051926,13.4942151 Z" id="Fill-17"></path>
            <path d="M65.0467937,14.3001436 L59.5105278,14.3001436 C59.5105278,14.3001436 59.5022996,6.98789006 59.5022996,6.98659088 C59.5022996,6.70943113 59.3593891,6.57128432 59.0393562,6.57128432 L51.4954144,6.57128432 C51.2017983,6.57128432 51.0445968,6.70033683 51.0445968,6.98226026 L51.0445968,14.54006 C51.0445968,14.54006 47.2639646,15.452955 47.0080249,15.5265755 C46.7538175,15.6001961 46.5663016,15.8349157 46.5663016,16.1151069 L46.5663016,20.864499 C46.5663016,21.206185 46.8391307,21.4816125 47.1764861,21.4816125 L51.0445968,21.4816125 C51.0445968,21.4816125 51.0445968,26.4492678 51.0445968,32.9075229 C51.0445968,41.3942409 56.9974684,42.2278855 61.0141194,42.2278855 C62.8498697,42.2278855 65.0454945,41.638488 65.4079675,41.5046718 C65.6270969,41.4241222 65.7544172,41.1967646 65.7544172,40.9507853 L65.7609131,35.7263242 C65.7609131,35.3855043 65.4729268,35.1096437 65.1489964,35.1096437 C64.825932,35.1096437 64.0009487,35.2408615 63.1512809,35.2408615 C60.4316509,35.2408615 59.5105278,33.9763202 59.5105278,32.3397785 C59.5105278,30.704536 59.5100947,21.4816125 59.5100947,21.4816125 L65.0467937,21.4816125 C65.3841491,21.4816125 65.6574113,21.206185 65.6574113,20.864499 L65.6574113,14.9155249 C65.6574113,14.574705 65.3841491,14.3001436 65.0467937,14.3001436" id="Fill-18"></path>
        </g>
    </g>
</svg>
